images/logout-icon.svg

<svg width="21" height="20" viewBox="0 0 21 20" fill="none" xmlns="http://www.w3.org/2000/svg">
<path id="Vector" d="M1.48755 18.6667H11.9004V20H0V0H11.9004V1.33333H1.48755V18.6667ZM21 10L15.3403 15.0833L14.4106 14.25L18.42 10.6667H5.95019V9.33333H18.42L14.4106 5.75L15.3403 4.91667L21 10Z" fill="#AAAAAA"/>
</svg>

<svg xmlns="http://www.w3.org/2000/svg" width="21" height="20" fill="none"><path fill="#AAA" d="M1.488 18.667H11.9V20H0V0h11.9v1.333H1.488v17.334ZM21 10l-5.66 5.083-.93-.833 4.01-3.583H5.95V9.333h12.47L14.41 5.75l.93-.833L21 10Z"/></svg>
